X:1
T:Soavissimo ardore
T:Soavissimo ardore
T:Giovanni Ghizzolo
C:Giovanni Ghizzolo
%%score 1 { 2 | 3 }
L:1/8
Q:1/4=120
M:4/4
K:F
V:1 treble nm="Soprano" snm="S"
V:2 treble nm="MusicXML Part"
V:3 bass 
V:1
"^Source: Madrigali et Arie---Libro primo---Venetia---A.Raverij---1609.\nEditor: André Vierendeels  (06/05/07)\nContinuo:André Vierendeels ." z2 GG G4-"^Soavissimo ardore" | %1
w: So- a vis-|
 G2 GG A2 A2 | z AAA AA A2- | A2 c4 BA | G2 GC DE/F/ EF/G/ | FG/A/ GA/B/ AB/c/ Bc/d/ | %6
w: * si- mo'ar- do- re|che da la vis- ta mia|_ cal- d'e bra-|mo- sa ti par- * * * * *||
 cd/e/ d4 c=B | c/A/B/c/ d/G/A/B/ c/F/G/A/ B/A/B/G/ | A4 A4 | z AAB c2 cd | Bc d4 f2 | %11
w: ||* ti|e'n- frai li- gus- tri di|quel bel vi- so'a-|
 _e/d/c/B/ c/B/A/G/ A/G/F/E/ F/E/D/C/ | DE/"^-natural"F/ G/A/B/c/ d4- | d2 =B2 c2 c2 | =B4 B4 | %15
w: vam- * * * * * * * * * * * * * * *||* pi'e sit' il-|lus- tri|
 z2 =B,2 C2 D2 | E3 D E^F G2- | G2 A2 A4 | G8 | z2 E2 F2 G2 | A3 G A=B c2- | c2 d2 d4 | c4 z2 G2 | %23
w: che l'al- ba|vin- ci'e laver- mig- li-|* a ro-|sa|che l'al- ba|vin- ci'e la ver- mig-|* glia ro-|sa Che|
 G2 A/G/A/B/ c4- | c2 F2 F2 F2 | G4 G4 | z GAB c4- | c2 c2 d4 | c4 c2 G2 | c2 BA G3 F | F4 F4 | %31
w: fa- * * * * i|_ la den- tr'ac-|col- to?|pur tro- po'e fiam-|* ma'il vol-|to scen- di,|scen- di nel pet- to|scen- di|
 z4 d2 A2 | d2 cB A3 G | G4 G4 | z2 G2 A2 A2- | A2 GF G2 G2 | z2 GA B2 AG | A4 d4- | d2 GA A4 | %39
w: scen- di,|scen- di nel pet- to|scen- di|e fa ch'ar-|* da d'a- mo- re|quel- la fiam- ma gen-|til ch'ar-|* se'il mio co-|
 G8 |] %40
w: re.|
V:2
 z4 [EG]4 | [DG]2 [EG]2 [CFA]4 | [FA]4 [DFA]4 | [EA]4 [EG]4 | [EG]2 [CE]2 [DF]2 [EG]2 | %5
 [FA]2 [Gc]2 [Ac]2 [GB]2 | [Ec]2 [Ad]2 [DG]4 | [EG]2 [DG]2 [FA]2 [DB]2 | [C^F]8 | [DF]4 [FA]4 | %10
"^b" [GB]2 [Fd]2 [FB]2 [DF]2 | [CG]4 [FA]4 | [DF]4 [DG]4 | G4 [CG]2 [DA]2 | [DG]4 [DG]4 | %15
 D4 C2 D2 | [EG]4 A2 [EG]2 | [EA]4 [D^F]4 | [DG=B]8 | [EG]4 [DF]2 [CE]2 | [Ac]4 [FA]2 [EA]2 | %21
 [DA]4 [G=B]4 | [EGc]8 | [EGc]8 | [FAc]4 [DFB]4 | [EGc]8 | [EGc]8 | [FAc]4 [G=B]4 | [EGc]8 | %29
 [Ac]4 [EGc]4 | [FAc]8 | [FA]4 [DA]4 | [FB]4 [DG]2 ^F2 | [DG=B]8 | [EG]4 [FA]4 | [EGc]8 | [DG]8 | %37
 [D^FA]4 [DG]4 | [EG]4 G2 [^Fd]2 | [DG=B]8 |] %40
V:3
 z2 C,C, C,4 | =B,,2 C,2 F,,4 | F,4 D,4 | A,,4 C,4 | C,2 A,,2 B,,2 C,2 | D,2 E,2 F,2 G,2 | %6
 A,2 ^F,2 G,4 | C,2 B,,2 A,,2 G,,2 | D,4 D,,4 | z D,D,G, F,2 F,D, | E,C, B,,4 B,,2 | _E,4 F,4 | %12
 B,,4 G,,4 | G,4 E,2 ^F,2 | G,4 G,,4 | z2 G,,2 A,,2 =B,,2 | C,3 =B,, C,D, E,2 | ^C,4 D,4 | G,,8 | %19
 z2 C,2 D,2 E,2 | F,3 E, F,G, A,2 | ^F,4 G,4 | C,8 | C,8 | A,,4 B,,2 D,2 | C,8 | C,4 z C,D,E, | %27
 F,2 A,2 G,4 | C,8 | A,,4 C,4 | F,,4 F,,4 | F,2 E,2 D,4 | B,,4 D,4 | G,,4 G,,4 | C,4 F,,4 | C,8 | %36
"^Notes: orginal keys: Ut 1st, Fa 4rth\n            editorial accidentals above the staff." z2 G,^F, G,2 F,E, | %37
 D,4 =B,,4 | C,4 D,4 | G,,8 |] %40

